dist/assets/uwm-icons/icon_find_a_doctor.svg

<?xml version="1.0" encoding="UTF-8"?>
<svg width="18px" height="13px" viewBox="0 0 18 13" version="1.1" xmlns="http://www.w3.org/2000/svg" xmlns:xlink="http://www.w3.org/1999/xlink">
    <!-- Generator: Sketch 48.2 (47327) - http://www.bohemiancoding.com/sketch -->
    <title>icon_find_a_doctor</title>
    <desc>Created with Sketch.</desc>
    <defs></defs>
    <g id="Icons" stroke="none" stroke-width="1" fill="none" fill-rule="evenodd">
        <g id="icon_find_a_doctor" transform="translate(-3.000000, -6.000000)">
            <rect id="Rectangle" x="0" y="0" width="24" height="24"></rect>
            <g id="Group-3" transform="translate(3.000000, 6.000000)" fill="#000000">
                <path d="M8.8612,8.59822766 C8.51548571,8.61344043 8.16205714,8.58190851 7.81662857,8.50722766 C6.77662857,8.28152553 5.88948571,7.67771702 5.31891429,6.80616383 C4.74834286,5.93488723 4.56262857,4.90069574 4.79548571,3.89416383 C5.02862857,2.88735532 5.65291429,2.02852553 6.55262857,1.47588723 C7.45262857,0.924078723 8.52005714,0.743738298 9.5612,0.96916383 C9.7572,1.01286596 9.95262857,0.892546809 9.99662857,0.702248936 C10.0406286,0.511951064 9.9172,0.323312766 9.72062857,0.280717021 C8.49034286,0.0132489362 7.22662857,0.227057447 6.16234286,0.8801 C5.09777143,1.53314255 4.35977143,2.54880213 4.08405714,3.7398234 C3.80862857,4.93029149 4.02834286,6.15367447 4.7032,7.18399362 C4.82577143,7.37097234 4.96434286,7.54356809 5.11034286,7.70924894 L0.276342857,12.3889723 C0.133771429,12.5269936 0.133771429,12.7502064 0.276342857,12.8879511 C0.347485714,12.9571 0.440628571,12.9913979 0.534057143,12.9913979 C0.6272,12.9913979 0.720628571,12.9571 0.791771429,12.8879511 L5.62205714,8.2121 C6.19977143,8.69144043 6.89348571,9.03027021 7.6572,9.19595106 C7.9992,9.27007872 8.3472,9.30741915 8.69377143,9.30741915 C8.76005714,9.30741915 8.82634286,9.30603617 8.89234286,9.30327021 C9.09348571,9.29524894 9.24948571,9.13039787 9.2412,8.93567447 C9.23291429,8.74095106 9.06234286,8.59075957 8.8612,8.59822766" id="Fill-39"></path>
                <path d="M13.4056857,6.60087447 C13.4056857,7.21187447 12.9839714,7.72440638 12.4096857,7.89451277 L12.4096857,5.30695957 C12.9839714,5.47734255 13.4056857,5.98959787 13.4056857,6.60087447 M10.7022571,9.83510851 C10.7022571,9.26891702 11.1248286,8.79815106 11.6802571,8.6985766 L11.6802571,10.9716404 C11.1248286,10.872066 10.7022571,10.4013 10.7022571,9.83510851 M17.7591143,4.13115106 L15.7394,2.51859787 C15.3919714,2.24006596 14.9425429,2.24034255 14.5936857,2.51749149 L12.4096857,4.25700213 L12.4096857,2.81787447 C12.8202571,2.6729383 13.1151143,2.29538511 13.1151143,1.8475766 C13.1151143,1.2755766 12.6359714,0.811725532 12.0451143,0.811725532 C11.4539714,0.811725532 10.9748286,1.2755766 10.9748286,1.8475766 C10.9748286,2.29538511 11.2696857,2.6729383 11.6802571,2.81787447 L11.6802571,4.25700213 L9.49625714,2.51749149 C9.14711429,2.24034255 8.69797143,2.24061915 8.35025714,2.51859787 L6.33082857,4.13115106 C6.07682857,4.33444894 6.04282857,4.70785319 6.14082857,4.97172553 C6.22797143,5.20683191 6.42254286,5.35287447 6.64854286,5.35287447 L8.93197143,5.35287447 C9.1334,5.35287447 9.29654286,5.1949383 9.29654286,4.9999383 C9.29654286,4.8049383 9.1334,4.64727872 8.93197143,4.64727872 L6.83082857,4.64727872 L8.81425714,3.0629383 C8.8954,2.99821489 8.95311429,2.99876809 9.03282857,3.0626617 L11.1182571,4.72361915 C10.3825429,5.04972553 9.86911429,5.76749149 9.86911429,6.60087447 C9.86911429,6.79615106 10.0319714,6.95381064 10.2334,6.95381064 C10.4351143,6.95381064 10.5982571,6.79615106 10.5982571,6.60087447 C10.5982571,5.95889574 11.0614,5.4225766 11.6802571,5.28095957 L11.6802571,7.98440638 C10.7211143,8.08951277 9.97282857,8.87891702 9.97282857,9.83510851 C9.97282857,10.7913 10.7211143,11.5818106 11.6802571,11.686917 L11.6802571,12.5487894 C11.6802571,12.744066 11.8434,12.9020021 12.0451143,12.9020021 C12.2465429,12.9020021 12.4096857,12.744066 12.4096857,12.5487894 L12.4096857,11.6647894 C12.7714,11.5967468 13.2476857,11.4150234 13.6622571,10.9406617 C13.7922571,10.7918532 13.7731143,10.5691936 13.6196857,10.443066 C13.4651143,10.3174915 13.2359714,10.3363 13.1056857,10.4845553 C12.8748286,10.7487043 12.6214,10.8756617 12.4096857,10.9390021 L12.4096857,8.6269383 C13.3911143,8.44217234 14.1348286,7.60436383 14.1348286,6.60087447 C14.1348286,5.78823617 13.6462571,5.08595957 12.9399714,4.74906596 L15.0571143,3.0626617 C15.1376857,2.99876809 15.1951143,2.99821489 15.2754,3.0629383 L17.2591143,4.64727872 L15.1582571,4.64727872 C14.9568286,4.64727872 14.7936857,4.8049383 14.7936857,4.9999383 C14.7936857,5.1949383 14.9568286,5.35287447 15.1582571,5.35287447 L17.4416857,5.35287447 C17.6676857,5.35287447 17.8619714,5.20683191 17.9491143,4.97172553 C18.0474,4.70812979 18.0131143,4.33444894 17.7591143,4.13115106" id="Fill-41"></path>
            </g>
        </g>
    </g>
</svg>

<svg width="18" height="13" xmlns="http://www.w3.org/2000/svg"><g fill="none" fill-rule="evenodd"><path d="M-3-6h24v24H-3z"/><g fill="#000"><path d="M8.861 8.598a4.14 4.14 0 0 1-1.044-.09 3.964 3.964 0 0 1-2.498-1.702 3.734 3.734 0 0 1-.524-2.912 3.845 3.845 0 0 1 1.758-2.418A4.076 4.076 0 0 1 9.56.969a.364.364 0 0 0 .436-.267.353.353 0 0 0-.276-.421 4.816 4.816 0 0 0-3.559.6A4.544 4.544 0 0 0 4.084 3.74 4.417 4.417 0 0 0 5.11 7.71L.276 12.388a.345.345 0 0 0 0 .499c.071.07.165.103.258.103a.369.369 0 0 0 .258-.103l4.83-4.676c.578.48 1.271.818 2.035.984a4.897 4.897 0 0 0 1.235.107.358.358 0 0 0 .35-.367.36.36 0 0 0-.38-.338"/><path d="M13.406 6.6c0 .612-.422 1.124-.996 1.295V5.307c.574.17.996.683.996 1.294m-2.704 3.234c0-.566.423-1.037.978-1.136v2.273c-.555-.1-.978-.57-.978-1.137m7.057-5.704L15.74 2.52a.892.892 0 0 0-1.145-.002l-2.184 1.74v-1.44c.41-.144.705-.522.705-.97 0-.571-.479-1.035-1.07-1.035-.591 0-1.07.464-1.07 1.036 0 .447.295.825.705.97v1.439l-2.184-1.74a.893.893 0 0 0-1.146.002L6.33 4.13c-.253.203-.287.577-.19.84.088.236.283.382.509.382h2.283A.359.359 0 0 0 9.297 5a.359.359 0 0 0-.365-.353H6.831l1.983-1.584c.081-.065.14-.064.219 0l2.085 1.66c-.735.327-1.249 1.044-1.249 1.878 0 .195.163.353.364.353a.359.359 0 0 0 .365-.353c0-.642.463-1.178 1.082-1.32v2.703c-.959.106-1.707.895-1.707 1.851s.748 1.747 1.707 1.852v.862c0 .195.163.353.365.353a.359.359 0 0 0 .365-.353v-.884c.361-.068.838-.25 1.252-.724a.346.346 0 0 0-.042-.498.374.374 0 0 0-.514.042c-.231.264-.485.39-.696.454V8.627c.981-.185 1.725-1.023 1.725-2.026 0-.813-.489-1.515-1.195-1.852l2.117-1.686c.08-.064.138-.065.218 0l1.984 1.584h-2.1a.359.359 0 0 0-.365.353c0 .195.163.353.364.353h2.284c.226 0 .42-.146.507-.381.098-.264.064-.638-.19-.84"/></g></g></svg>
